img/tradingview.svg

<svg width="172" height="27" viewBox="0 0 172 27" fill="none" xmlns="http://www.w3.org/2000/svg">
<path d="M47.2735 20.1546H50.36V7.63646H54.3962V4.60919H43.2637V7.63646H47.2735V20.1546ZM54.3962 20.1546H57.298V14.9183C57.298 13.091 58.195 12.0001 59.5931 12.0001C60.068 12.0001 60.4637 12.0819 60.9121 12.2456V9.19101C60.5956 9.10919 60.2526 9.05465 59.9361 9.05465C58.7489 9.05465 57.6674 9.87283 57.298 10.9365V9.19101H54.3962V20.1546ZM66.4784 20.4001C67.9293 20.4001 69.0373 19.6365 69.5385 18.9274V20.1546H72.4404V9.21828H69.5385V10.4455C69.0637 9.73646 67.9557 8.97282 66.4784 8.97282C63.6557 8.97282 61.4925 11.591 61.4925 14.7001C61.4925 17.7819 63.6557 20.4001 66.4784 20.4001ZM67.0851 17.6728C65.4759 17.6728 64.4207 16.4183 64.4207 14.7001C64.4207 12.9819 65.4759 11.7274 67.0851 11.7274C68.6943 11.7274 69.7496 12.9819 69.7496 14.7001C69.7496 16.4183 68.6943 17.6728 67.0851 17.6728ZM79.3256 20.4001C80.7766 20.4001 81.8845 19.6365 82.3858 18.9274V20.1546H85.2876V3.73646H82.3858V10.4455C81.9109 9.73646 80.8029 8.97282 79.3256 8.97282C76.5029 8.97282 74.3397 11.591 74.3397 14.7001C74.3661 17.7819 76.5029 20.4001 79.3256 20.4001ZM79.9588 17.6728C78.3496 17.6728 77.2943 16.4183 77.2943 14.7001C77.2943 12.9819 78.3496 11.7274 79.9588 11.7274C81.568 11.7274 82.6232 12.9819 82.6232 14.7001C82.6232 16.4183 81.568 17.6728 79.9588 17.6728ZM89.3238 7.55464C90.3526 7.55464 91.1968 6.70919 91.1968 5.64555C91.1968 4.58192 90.3526 3.73646 89.3238 3.73646C88.3213 3.73646 87.4772 4.58192 87.4772 5.64555C87.5036 6.68192 88.3213 7.52737 89.3238 7.55464ZM87.8993 20.1546H90.8011V9.32737H87.8993V20.1546ZM93.36 20.1546H96.2618V14.8092C96.2618 12.7092 97.2643 11.7001 98.6097 11.7001C99.8232 11.7001 100.483 12.6546 100.483 14.2365V20.1546H103.385V13.7456C103.385 10.9092 101.854 8.97282 99.2956 8.97282C97.9238 8.97282 96.8422 9.57282 96.2618 10.4728V9.21828H93.36V20.1546ZM110.771 17.2365C109.32 17.2365 108.08 16.091 108.08 14.4274C108.08 12.7365 109.294 11.6183 110.771 11.6183C112.222 11.6183 113.462 12.7365 113.462 14.4274C113.462 16.1183 112.248 17.2365 110.771 17.2365ZM110.428 24.9001C113.673 24.9001 116.126 23.1819 116.126 19.2546V9.16374H113.224V10.391C112.644 9.54556 111.51 8.91828 110.164 8.91828C107.394 8.91828 105.178 11.3728 105.178 14.4546C105.178 17.5092 107.394 19.9637 110.164 19.9637C111.51 19.9637 112.67 19.3365 113.224 18.5183V19.2546C113.224 21.0001 112.09 22.2546 110.375 22.2546C109.188 22.2546 108.001 21.8456 107.078 20.891L105.495 23.1274C106.708 24.3546 108.581 24.9001 110.428 24.9001ZM122.273 20.1546H125.016L131.242 4.60919H127.866L123.671 15.4092L119.424 4.60919H116.1L122.273 20.1546ZM133.88 7.41828C134.909 7.41828 135.727 6.57282 135.753 5.50919C135.753 4.44555 134.909 3.6001 133.88 3.6001C132.878 3.6001 132.034 4.44555 132.034 5.50919C132.034 6.57282 132.904 7.41828 133.88 7.41828ZM132.456 20.1546H135.358V9.19101H132.456V20.1546ZM142.85 20.4001C145.066 20.4001 146.754 19.4455 147.756 17.9455L145.593 16.2819C145.118 17.0456 144.195 17.6728 142.85 17.6728C141.451 17.6728 140.212 16.8546 140.027 15.3819H147.941C147.994 14.9183 147.994 14.6183 147.994 14.3456C147.994 10.7728 145.567 8.97282 142.77 8.97282C139.552 8.97282 137.204 11.4546 137.204 14.6728C137.257 18.1365 139.71 20.4001 142.85 20.4001ZM140.159 13.3637C140.449 12.0274 141.636 11.4546 142.718 11.4546C143.799 11.4546 144.854 12.0546 145.118 13.3637H140.159ZM158.889 20.1546H161.764L165.246 9.19101H162.134L160.155 16.2001L157.992 9.19101H155.776L153.639 16.2001L151.634 9.19101H148.548L152.056 20.1546H154.932L156.91 13.9365L158.889 20.1546Z" fill="white"></path>
<path d="M18.6777 20.1546H12.8213V10.6637H6.96484V4.60913H18.6513V20.1546H18.6777ZM30.3906 20.1546H23.7164L29.9949 4.60913H36.6691L30.3906 20.1546ZM23.69 4.60913C25.5366 4.60913 27.0403 6.16368 27.0403 8.07277C27.0403 9.98186 25.5366 11.5364 23.69 11.5364C21.8434 11.5364 20.3397 9.98186 20.3397 8.07277C20.3661 6.16368 21.8434 4.60913 23.69 4.60913Z" fill="white"></path>
</svg>

<svg width="172" height="27" fill="none" xmlns="http://www.w3.org/2000/svg"><path d="M47.273 20.155h3.087V7.636h4.036V4.61H43.264v3.027h4.01v12.519Zm7.123 0h2.902v-5.237c0-1.827.897-2.918 2.295-2.918.475 0 .87.082 1.32.246V9.19a4.01 4.01 0 0 0-.977-.136c-1.187 0-2.269.818-2.638 1.882V9.19h-2.902v10.964Zm12.082.245c1.451 0 2.56-.763 3.06-1.473v1.228h2.902V9.218H69.54v1.227c-.475-.709-1.583-1.472-3.06-1.472-2.823 0-4.986 2.618-4.986 5.727 0 3.082 2.163 5.7 4.985 5.7Zm.607-2.727c-1.61 0-2.664-1.255-2.664-2.973s1.055-2.973 2.664-2.973c1.61 0 2.665 1.255 2.665 2.973s-1.056 2.973-2.665 2.973Zm12.24 2.727c1.452 0 2.56-.763 3.06-1.473v1.228h2.903V3.736h-2.902v6.71c-.475-.71-1.583-1.473-3.06-1.473-2.823 0-4.986 2.618-4.986 5.727.026 3.082 2.163 5.7 4.986 5.7Zm.634-2.727c-1.61 0-2.665-1.255-2.665-2.973s1.056-2.973 2.665-2.973 2.664 1.255 2.664 2.973-1.055 2.973-2.664 2.973Zm9.365-10.118c1.029 0 1.873-.846 1.873-1.91 0-1.063-.844-1.909-1.873-1.909-1.003 0-1.847.846-1.847 1.91.027 1.036.844 1.881 1.847 1.909Zm-1.425 12.6h2.902V9.327H87.9v10.828Zm5.461 0h2.902v-5.346c0-2.1 1.002-3.109 2.348-3.109 1.213 0 1.873.955 1.873 2.537v5.918h2.902v-6.41c0-2.836-1.531-4.772-4.09-4.772-1.371 0-2.453.6-3.033 1.5V9.218H93.36v10.937Zm17.411-2.919c-1.451 0-2.691-1.145-2.691-2.809 0-1.69 1.214-2.809 2.691-2.809 1.451 0 2.691 1.118 2.691 2.81 0 1.69-1.214 2.808-2.691 2.808Zm-.343 7.664c3.245 0 5.698-1.718 5.698-5.645V9.164h-2.902v1.227c-.58-.845-1.714-1.473-3.06-1.473-2.77 0-4.986 2.455-4.986 5.537 0 3.054 2.216 5.509 4.986 5.509 1.346 0 2.506-.627 3.06-1.446v.737c0 1.745-1.134 3-2.849 3-1.187 0-2.374-.41-3.297-1.364l-1.583 2.236c1.213 1.228 3.086 1.773 4.933 1.773Zm11.845-4.745h2.743l6.226-15.546h-3.376l-4.195 10.8-4.247-10.8H116.1l6.173 15.546ZM133.88 7.418c1.029 0 1.847-.845 1.873-1.909 0-1.063-.844-1.909-1.873-1.909-1.002 0-1.846.846-1.846 1.91 0 1.063.87 1.908 1.846 1.908Zm-1.424 12.737h2.902V9.19h-2.902v10.964Zm10.394.245c2.216 0 3.904-.954 4.906-2.454l-2.163-1.664c-.475.764-1.398 1.39-2.743 1.39-1.399 0-2.638-.817-2.823-2.29h7.914c.053-.464.053-.764.053-1.036 0-3.573-2.427-5.373-5.224-5.373-3.218 0-5.566 2.482-5.566 5.7.053 3.464 2.506 5.727 5.646 5.727Zm-2.691-7.036c.29-1.337 1.477-1.91 2.559-1.91 1.081 0 2.136.6 2.4 1.91h-4.959Zm18.73 6.79h2.875l3.482-10.963h-3.112l-1.979 7.01-2.163-7.01h-2.216l-2.137 7.01-2.005-7.01h-3.086l3.508 10.964h2.876l1.978-6.219 1.979 6.219ZM18.678 20.155H12.82v-9.491H6.965V4.609H18.65v15.546h.027Zm11.713 0h-6.675l6.279-15.546h6.674l-6.278 15.546ZM23.69 4.609c1.847 0 3.35 1.555 3.35 3.464s-1.503 3.463-3.35 3.463c-1.847 0-3.35-1.554-3.35-3.463.026-1.91 1.503-3.464 3.35-3.464Z" fill="#fff"/></svg>
